icons/inbox-arrow-down-outline.svg

<svg xmlns="http://www.w3.org/2000/svg" width="24" height="24" viewBox="0 0 24 24">
  <path d="M19,2 C20.5976809,2 21.9036609,3.24891996 21.9949073,4.82372721 L22,5 L22,19 C22,20.5976809 20.75108,21.9036609 19.1762728,21.9949073 L19,22 L5,22 C3.40231912,22 2.09633912,20.75108 2.00509269,19.1762728 L2,19 L2,5 C2,3.40231912 3.24891996,2.09633912 4.82372721,2.00509269 L5,2 L19,2 Z M19,4 L5,4 C4.48716416,4 4.06449284,4.38604019 4.00672773,4.88337887 L4,5 L4,14 L6,14 C7.1045695,14 8,14.8954305 8,16 C8,17.1045695 8.8954305,18 10,18 L14,18 C15.1045695,18 16,17.1045695 16,16 C16,14.8954305 16.8954305,14 18,14 L20,14 L20,5 C20,4.48716416 19.6139598,4.06449284 19.1166211,4.00672773 L19,4 Z M12,6 C12.5522847,6 13,6.44771525 13,7 L13,7 L13,10.585 L14.2928932,9.29289322 L14.3871006,9.20970461 C14.7793918,8.90467972 15.3466228,8.93240926 15.7071068,9.29289322 C16.0976311,9.68341751 16.0976311,10.3165825 15.7071068,10.7071068 L15.7071068,10.7071068 L12.7071068,13.7071068 L12.625449,13.7803112 C12.6225624,13.7826279 12.6196628,13.7849289 12.6128994,13.7902954 C12.6070733,13.7948255 12.6012086,13.7992821 12.5951593,13.8036865 C12.5711307,13.8215099 12.546275,13.8382813 12.5207088,13.8540045 C12.5086131,13.8613931 12.4963944,13.8685012 12.484277,13.8751242 C12.4642939,13.8862061 12.4438914,13.8966234 12.4232215,13.9063266 L12.4232215,13.9063266 L12.3710585,13.928896 C12.3515792,13.9366843 12.3317977,13.9438775 12.3121425,13.9502619 C12.2968513,13.9552713 12.2814633,13.9599023 12.2658396,13.964279 C12.2444365,13.9701664 12.2227461,13.9753602 12.2007258,13.9797599 C12.1833753,13.9832978 12.165949,13.9863719 12.1489612,13.9889807 L12.1489612,13.9889807 L12.08,13.996 L12.045,13.998 L12.019,13.999 L12,14 C11.9935938,14 11.9872016,13.9999398 11.980824,13.9998198 L11.980824,13.9998198 L11.9409686,13.9982669 C11.9308872,13.9976744 11.9208131,13.99693 11.909968,13.996002 L11.909968,13.996002 L11.8515331,13.9889822 C11.834051,13.9863719 11.8166247,13.9832978 11.7992059,13.9798348 C11.7772539,13.9753602 11.7555635,13.9701664 11.734007,13.9641549 C11.7185367,13.9599023 11.7031487,13.9552713 11.6882636,13.9504533 C11.6682023,13.9438775 11.6484208,13.9366843 11.628664,13.9287745 L11.628664,13.9287745 L11.5769009,13.9063462 C11.5561086,13.8966234 11.5357061,13.8862061 11.5159379,13.8753288 L11.5159379,13.8753288 L11.4793398,13.8539326 C11.453725,13.8382813 11.4288693,13.8215099 11.4046934,13.8036654 L11.4046934,13.8036654 L11.38,13.784 L11.3832499,13.787214 L11.378,13.783 L11.374551,13.7803112 L11.359,13.767 L11.347434,13.757792 L11.347434,13.757792 L11.2928932,13.7071068 L8.29289322,10.7071068 L8.20970461,10.6128994 C7.90467972,10.2206082 7.93240926,9.65337718 8.29289322,9.29289322 C8.68341751,8.90236893 9.31658249,8.90236893 9.70710678,9.29289322 L9.70710678,9.29289322 L11,10.585 L11,7 L11.0067277,6.88337887 C11.0644928,6.38604019 11.4871642,6 12,6 Z"/>
</svg>

<svg xmlns="http://www.w3.org/2000/svg" viewBox="0 0 24 24">
  <path d="M19 2a3 3 0 0 1 3 2.82V19a3 3 0 0 1-2.82 3H5a3 3 0 0 1-3-2.82V5a3 3 0 0 1 2.82-3H19zm0 2H5a1 1 0 0 0-1 .88V14h2a2 2 0 0 1 2 2c0 1.1.9 2 2 2h4a2 2 0 0 0 2-2c0-1.1.9-2 2-2h2V5a1 1 0 0 0-.88-1H19zm-7 2a1 1 0 0 1 1 1v3.59l1.3-1.3.09-.08a1 1 0 0 1 1.32 1.5l-3 3-.08.07a3 3 0 0 1-.15.1l-.06.03-.05.02a.95.95 0 0 1-.22.06h-.13L12 14h-.09l-.06-.01a1.1 1.1 0 0 1-.22-.06l-.05-.02a1.04 1.04 0 0 1-.06-.03l-.04-.03a1.03 1.03 0 0 1-.08-.05l-.02-.02-.02-.01-.01-.01-.06-.05-3-3-.08-.1a1 1 0 0 1 1.5-1.32L11 10.6V6.88A1 1 0 0 1 12 6z"/>
</svg>
